!!!ONB: MCCC : IJH0449_04 : Extracted Monophonic Melody
!!!COM: Haydn, Joseph
!!!OPR: String Quartet in E-flat major
!!!OMV: 4
!!!SCT: Hob.III:71 ; Op.71 No.3
!!!ODT: 1793///
**kern
*thru
*k[b-e-a-]
*E-:
*clefF
*M6/8
8a-
=1
4g
8e-
8d
8r
8a-
=2
4g
8e-
8d
8r
8b-
=3
8ee-
8a-
8g
8cc
8f
8e-
=4
8d
8a-
8g
8f
8r
8a-
=5
4g
8e-
8d
8r
8a-
=6
4g
8e-
8d
8r
8b-
=7
4cc
8dd
4ee-
8dd
=8
8cc
8b-
8a
4b-
8bb-
=9
8ccc-
8bb-
8aa
4bb-
8gg
=10
8aa-
8gg
8ff#
4gg
8ff
=11
2ee-
8ff
8ee-
=12
4.ee-
4.ee
=13
8ff
8aa-
8gg
8bb-
8aa-
8ccc
=14
4.ee-
4dd
8b-
=15
8cc-
8b-
8a
4b-
8B-
=16
8c-
8B-
8A
4B-
8b-
=17
8cc-
8ee-
8a
4b-
8f
=18
8g-
8e-
8A
4B-
8b-[
=19
8b-]
8ee-
4gg
8ff
8b-[
=20
8b-]
8ee-
4gg
8ff
8aa-[
=21
8aa-]
8gg
4ccc
8bb-
8aa-[
=22
8aa-]
8gg
4ff
8gg
8b-[
=23
8b-]
8ee-
4gg
8ff
8b-[
=24
8b-]
8ee-
4gg
8ff
8aa-[
=25
8aa-]
8gg
4ccc
8bb-
8eee-[
=26
8eee-]
8ddd
4ccc
8bb-
8aa
=27
4bb-
8bb
4ccc
8r
=28
2r
8r
8aa-[
=29
8aa-]
8gg
4ff
8ee-
8dd
=30
4.ff
8ee-
4r
=31
4.ff
8ee-
16r
16b-
16cc
16dd
=32
16ee-
16dd
16ee-
16ff
16gg
16aa-
16bb-
16ccc
16bb-
16aa-
16gg
16ff
=33
16ee-
16dd
16ee-
16ff
16gg
16aa-
16bb-
16ccc
16bb-
16aa-
16gg
16ff
=34
16ee-
16ff
16gg
16ff
16ee-
16dd
16cc
16b-
16a
16gg
16ff
16ee-
=35
4dd
8b-
8a
8r
8ee-
=36
4dd
8b-
4a
8ee-
=37
16dd
16ee-
16ff
16ee-
16ff
16gg
16aa-
16ff
16ee-
16dd
16ee-
16ff
=38
4b-
2r
=39
2.r
=40
2r
8r
8bb-
=41
4aa-
8ff
8ee
8r
8bb-
=42
4aa-
8ff
4ee
8bb-
=43
16aa-
16bb-
16aa-
16gg
16ff
16ee-
16dd
16ee-
16ff
16ee-
16dd
16cc
=44
16b
16cc
16dd
16cc
16b
16a-
16g
16a-
16g
16f
16e-
16d
=45
4e-
2r
=46
2.r
=47
2r
8r
8eee-
=48
4ddd
8bb-
4aa
8gg
=49
16ee
16ff
16gg
16ff
16ee-
16dd
8cc
8ff
8a
=50
8cc
8b-
8ee
8gg
8ff
8aa
=51
16bb-
16aa
16bb-
16ff
8ddd
16eee-
16ddd
16eee-
16ff
8ddd
=52
16eee-
16ddd
16eee-
16ff
16ddd
16ff
16eee-
16ddd
16eee-
16ff
16ddd
16ff
=53
16eee-
16ddd
16ccc
16ddd
16ccc
16bb-
16ccc
16bb-
16aa
16bb-
16aa
16gg
=54
16aa
16gg
16ff
16gg
16ff
16ee-
16ff
16ee-
16dd
16ee-
16dd
16cc
=55
16dd
16cc
16b-
16cc
16b-
16a
16b-
16a
16g
16a
16g
16f
=56
16g
16f
16e
16g
16f
16e
16g
16f
16e
16g
16f
16e
=57
16g
16f
16e
16g
16f
16e
16g
16f
16e-
16g
16f
16e-
=58
16d
16e-
16f
16g
16a
16b-
16d
16e-
16f
16g
16a
16b-
=59
8e-
8g
8b
8cc
8dd
8ee-
=60
8ee
8ff
8gg-
8gg
8aa
8bb-
=61
4ff
8ee
8ee-
8cc
8a
=62
4b-
4ff
8gg
8cc[
=63
8cc]
8dd
4ff
8gg
8cc[
=64
8cc]
8dd
4cc
8dd
8ee-[
=65
8ee-]
8ff
4gg
8aa-
8bb-[
=66
8bb-]
8ccc
8bb-
8aa-
8gg
8ff[
=67
8ff]
8gg
8ff
8ee-
8dd
8cc
=68
2.b-
=69
4.a
4r
8a-
=70
4g
8e-
8d
8r
8a-
=71
4g
8e-
8d
8r
8b-
=72
8ee-
8a-
8g
8cc
8f
8e-
=73
8d
8a-
8g
8f
16r
16b-
16cc
16dd
=74
16ee-
16dd
16ee-
16ff
16gg
16aa-
16bb-
16ccc
16bb-
16aa-
16gg
16ff
=75
16ee-
16dd
16ee-
16ff
16gg
16aa-
16bb-
16ccc
16ddd-
16bb-
16gg
16ee-
=76
4ccc
2r
=77
2.r
=78
2r
16r
16f
16g
16a
=79
16b-
16a
16b-
16cc
16dd-
16ee-
16ff
16gg-
16ff
16ee-
16dd-
16cc
=80
16b
16cc
16dd
16cc
16b
16a-
16g
16a-
16g
16f
16e-
16d
=81
4e-
8cc
4b
8ff
=82
4ee-
8cc
4b
8a-
=83
4g
8e-
4d
8a-
=84
4g
8e-
4d
8a-
=85
4g
8a-
4g
8a-
=86
4g
8a-
4g
8a-
=87
4g
8a-
4g
8a-
=88
4g
8a-
4g
8a-
=89
4g
8e-
8d
8r
8a-
=90
4g
8e-
8d
8r
8b-
=91
8ee-
8a-
8g
8cc
8f
8e-
=92
8d
8a-
8g
8f
8r
8a-
=93
4g
8e-
8d
8r
8a-
=94
4g
8e-
8d
8r
8b-
=95
4cc
8dd
4ee-
8dd
=96
8cc
8b-
8a
4b-
8bb-
=97
8ccc-
8bb-
8aa
4bb-
8gg
=98
8aa-
8gg
8ff#
4gg
8ff
=99
2ee-
8ff
8ee-
=100
4.ee-
4.ee
=101
8ff
8aa-
8gg
8bb-
8aa-
8ccc
=102
4.ee-
4dd
8b-
=103
8cc-
8b-
8a
4b-
8B-
=104
8c-
8B-
8A
4B-
8b-
=105
8cc-
8ee-
8a
4b-
8f
=106
8g-
8e-
8A
4B-
8b-[
=107
8b-]
8ee-
4gg
8ff
8b-[
=108
8b-]
8ee-
4gg
8ff
8aa-[
=109
8aa-]
8gg
4ccc
8bb-
8aa-[
=110
8aa-]
8gg
4ff
8gg
8b-[
=111
8b-]
8ee-
4gg
8ff
8b-[
=112
8b-]
8ee-
4gg
8ff
8aa-[
=113
8aa-]
8gg
4ccc
8bb-
8eee-[
=114
8eee-]
8ddd
4ccc
8bb-
8aa
=115
4bb-
8bb
4ccc
8r
=116
2r
8r
8gg
=117
4aa-
8aa
4bb-
8r
=118
2r
8r
8ff
=119
4gg-
8ff
4gg-
8gg
=120
4aa-
8gg
4aa-
8aa
=121
4bb-
8aa
4bb-
8bb
=122
8ccc
8ddd
8eee-
8eee
8fff
8eee-
=123
8ddd
8ccc
8bb-
4bb-
8ccc-
=124
4bb-
8ccc-
4bb-
8ccc-
=125
4.bb-
4.r
=126
2.r
=127
2.r
=128
2r
8r
8aa-
=129
4gg-
8ee-
8dd
8r
8aa-
=130
4gg-
8ee-
4dd
8dd-
=131
4cc
8cc-
4b-
8a
=132
16a-
16f
16g
16a-
16b-
16cc
16dd
16ee-
16ff
16gg
16aa-
16bb-
=133
16ccc
16bb-
16aa-
16bb-
16aa-
16gg
16aa-
16gg
16ff
16gg
16ff
16ee-
=134
16ff
16ee-
16dd
16ee-
16dd
16cc
16dd
16cc
16b-
16cc
16b-
16a-
=135
16g
16a-
16b-
16cc
16dd
16ee-
16cc
16dd
16ee-
16ff
16gg
16aa-
=136
16gg
16aa-
16aa
16bb-
16gg
16ee-
16ee
16ff
16gg
16aa-
16ff
16dd
=137
16ee-
16dd
16ee-
16ff
16gg
16aa-
16bb-
16ccc
16bb-
16aa-
16gg
16ff
=138
16ee-
16dd
16ee-
16ff
16gg
16aa-
16bb-
16ccc
16bb-
16aa-
16gg
16ff
=139
16ee-
16gg
16ff
16ee-
16dd
16cc
16b-
16ee-
16dd
16cc
16b-
16a-
=140
16g
16cc
16b-
16a-
16g
16f
16e-
16d
16e-
16B-
16c
16d
=141
16e-
16d
16e-
16B-
16c
16d
16e-
16g
16b-
16a-
16g
16f
=142
4e-
8r
4gg
8r
=143
4e-
2r
==
*-
